src/assets/icons/1-icon-javaScript.svg

<svg width="65" height="64" viewBox="0 0 65 64" fill="none" xmlns="http://www.w3.org/2000/svg">
<path d="M0.5 64V0H64.5V64H0.5Z" fill="#FFD600"/>
<path d="M42.3454 47.9057C43.5756 49.9039 44.9125 51.8186 47.7445 51.8186C50.1231 51.8186 51.3712 50.6363 51.3712 49.0008C51.3712 47.0434 50.0805 46.3483 47.4636 45.2088L46.0289 44.5972C41.8885 42.8408 39.1347 40.6399 39.1347 35.991C39.1347 31.7066 42.4147 28.4461 47.54 28.4461C51.1898 28.4461 53.812 29.7101 55.7036 33.0203L51.2343 35.8772C50.2511 34.1208 49.188 33.4292 47.54 33.4292C45.8583 33.4292 44.7934 34.4906 44.7934 35.8772C44.7934 37.591 45.86 38.2843 48.3223 39.3457L49.7569 39.9572C54.6369 42.0354 57.3889 44.1581 57.3889 48.9297C57.3889 54.071 53.3285 56.8888 47.8778 56.8888C42.5463 56.8888 39.5187 54.2132 37.8334 50.9012L42.3454 47.9057ZM21.748 48.0514C22.6476 49.6621 24.0147 50.9012 25.9809 50.9012C27.8618 50.9012 28.9445 50.1581 28.9445 47.2692V28.4443H34.8698V48.1795C34.8698 54.1652 31.3978 56.8888 26.3276 56.8888C21.7463 56.8888 18.4396 53.7848 17.092 50.9012L21.748 48.0514Z" fill="#000001"/>
</svg>

<svg xmlns="http://www.w3.org/2000/svg" width="65" height="64" fill="none"><path fill="#FFD600" d="M.5 64V0h64v64H.5Z"/><path fill="#000001" d="M42.35 47.9c1.23 2 2.56 3.92 5.4 3.92 2.37 0 3.62-1.18 3.62-2.82 0-1.96-1.29-2.65-3.9-3.8l-1.44-.6c-4.14-1.76-6.9-3.96-6.9-8.6 0-4.3 3.28-7.55 8.41-7.55 3.65 0 6.27 1.26 8.16 4.57l-4.47 2.86c-.98-1.76-2.04-2.45-3.69-2.45-1.68 0-2.75 1.06-2.75 2.45 0 1.71 1.07 2.4 3.53 3.47l1.44.6c4.88 2.09 7.63 4.2 7.63 8.98 0 5.14-4.06 7.96-9.51 7.96-5.33 0-8.36-2.68-10.05-5.99l4.52-3Zm-20.6.15c.9 1.61 2.26 2.85 4.23 2.85 1.88 0 2.96-.74 2.96-3.63V28.44h5.93v19.74c0 5.99-3.47 8.7-8.54 8.7-4.58 0-7.89-3.1-9.24-5.98l4.66-2.85Z"/></svg>
